svg/icon/xpm.svg

<svg xmlns="http://www.w3.org/2000/svg" xmlns:xlink="http://www.w3.org/1999/xlink" width="32" height="32" viewBox="0 0 32 32">
  <defs>
    <linearGradient id="xpm-c" x1="50%" x2="50%" y1="0%" y2="100%">
      <stop offset="0%" stop-color="#FFF" stop-opacity=".5"/>
      <stop offset="100%" stop-opacity=".5"/>
    </linearGradient>
    <circle id="xpm-b" cx="16" cy="15" r="15"/>
    <filter id="xpm-a" width="111.7%" height="111.7%" x="-5.8%" y="-4.2%" filterUnits="objectBoundingBox">
      <feOffset dy=".5" in="SourceAlpha" result="shadowOffsetOuter1"/>
      <feGaussianBlur in="shadowOffsetOuter1" result="shadowBlurOuter1" stdDeviation=".5"/>
      <feComposite in="shadowBlurOuter1" in2="SourceAlpha" operator="out" result="shadowBlurOuter1"/>
      <feColorMatrix in="shadowBlurOuter1" values="0 0 0 0 0   0 0 0 0 0   0 0 0 0 0  0 0 0 0.199473505 0"/>
    </filter>
    <path id="xpm-e" d="M24,14.5618211 C24,18.9852502 20.5742529,20.4889753 17.6906127,20.4889753 L17.6906127,21.6421673 L19.9154845,21.6421673 L19.9154845,23.2039885 L17.6906127,23.2039885 L17.6906127,25 L14.2114398,25 L14.2114398,23.2039885 L12.0842137,23.2039885 L12.0842137,21.6421673 L14.2066103,21.6421673 L14.2066103,20.474376 C13.2843344,20.474376 8,20.2552364 8,14.2406372 L8,7 L11.4547238,7 L11.4547238,14.5181738 C11.4547238,17.6568669 14.2212496,17.6275179 14.2212496,17.6275179 L14.2212496,7 L17.6906127,7 L17.6906127,17.6275179 C17.6906127,17.6275179 20.5451253,17.7879594 20.5451253,14.4745265 L20.5451253,7 L24,7 L24,14.5618211 Z"/>
    <filter id="xpm-d" width="121.9%" height="119.4%" x="-10.9%" y="-6.9%" filterUnits="objectBoundingBox">
      <feOffset dy=".5" in="SourceAlpha" result="shadowOffsetOuter1"/>
      <feGaussianBlur in="shadowOffsetOuter1" result="shadowBlurOuter1" stdDeviation=".5"/>
      <feColorMatrix in="shadowBlurOuter1" values="0 0 0 0 0   0 0 0 0 0   0 0 0 0 0  0 0 0 0.204257246 0"/>
    </filter>
  </defs>
  <g fill="none" fill-rule="evenodd">
    <use fill="#000" filter="url(#xpm-a)" xlink:href="#xpm-b"/>
    <use fill="#FFD81B" xlink:href="#xpm-b"/>
    <use fill="url(#xpm-c)" style="mix-blend-mode:soft-light" xlink:href="#xpm-b"/>
    <circle cx="16" cy="15" r="14.5" stroke="#000" stroke-opacity=".097"/>
    <g fill-rule="nonzero">
      <use fill="#000" filter="url(#xpm-d)" xlink:href="#xpm-e"/>
      <use fill="#FFF" fill-rule="evenodd" xlink:href="#xpm-e"/>
    </g>
  </g>
</svg>

<svg height="32" width="32" xmlns="http://www.w3.org/2000/svg" xmlns:xlink="http://www.w3.org/1999/xlink"><defs><linearGradient id="c" x1="50%" x2="50%" y1="0%" y2="100%"><stop offset="0" stop-color="#fff" stop-opacity=".5"/><stop offset="1" stop-opacity=".5"/></linearGradient><circle id="b" cx="16" cy="15" r="15"/><filter id="a" height="111.7%" width="111.7%" x="-5.8%" y="-4.2%"><feOffset dy=".5" in="SourceAlpha" result="shadowOffsetOuter1"/><feGaussianBlur in="shadowOffsetOuter1" result="shadowBlurOuter1" stdDeviation=".5"/><feComposite in="shadowBlurOuter1" in2="SourceAlpha" operator="out" result="shadowBlurOuter1"/><feColorMatrix in="shadowBlurOuter1" values="0 0 0 0 0 0 0 0 0 0 0 0 0 0 0 0 0 0 0.199473505 0"/></filter><path id="e" d="M24 14.562c0 4.423-3.426 5.927-6.31 5.927v1.153h2.225v1.562h-2.224V25h-3.48v-1.796h-2.127v-1.562h2.123v-1.168c-.923 0-6.207-.219-6.207-6.233V7h3.455v7.518c0 3.139 2.766 3.11 2.766 3.11V7h3.47v10.628s2.854.16 2.854-3.153V7H24z"/><filter id="d" height="119.4%" width="121.9%" x="-10.9%" y="-6.9%"><feOffset dy=".5" in="SourceAlpha" result="shadowOffsetOuter1"/><feGaussianBlur in="shadowOffsetOuter1" result="shadowBlurOuter1" stdDeviation=".5"/><feColorMatrix in="shadowBlurOuter1" values="0 0 0 0 0 0 0 0 0 0 0 0 0 0 0 0 0 0 0.204257246 0"/></filter></defs><g fill="none" fill-rule="evenodd"><use fill="#000" filter="url(#a)" xlink:href="#b"/><use fill="#ffd81b" xlink:href="#b"/><use fill="url(#c)" xlink:href="#b"/><circle cx="16" cy="15" r="14.5" stroke="#000" stroke-opacity=".097"/><g fill-rule="nonzero"><use fill="#000" filter="url(#d)" xlink:href="#e"/><use fill="#fff" fill-rule="evenodd" xlink:href="#e"/></g></g></svg>
